X: 508
T: Over the bridge to Peggy
C: anon.
O: Ireland
B: Francis O'Neill: "The Dance Music of Ireland" (1907) no. 508
R: Reel
Z: Transcribed by Frank Nordberg - http://www.musicaviva.com
F: http://www.musicaviva.com/abc/tunes/ireland/oneill-1001/oneill-1001-050
8.abc
M: C|
L: 1/8
K: D
dB"^segno" ||AFdB AFDF|AFdB A2dB|AFdB ABde||fedf e2dB|ABdB AFDF|AFdB A2de
|faaf gece|dBAF D2 z2||
fedg abaf|gage abaf|defg abaf|bgaf e2d2|defg a2af|bagb a2af|gfeg f2fd|egf
d efdB"^segno" |]
W:
W:
W: From Musica Viva - http://www.musicaviva.com
W: the Internet center for free sheet music downloads.


